<?xml version="1.0" encoding="UTF-8"?>
<map version="1.10" tiledversion="1.12.1" orientation="orthogonal" renderorder="right-down" width="24" height="14" tilewidth="16" tileheight="16" infinite="0" nextlayerid="6" nextobjectid="8">
 <tileset firstgid="1" source="basictiles.tsx"/>
 <layer id="2" name="Zones" width="24" height="14">
  <data encoding="csv">
12,12,12,12,12,12,12,12,12,12,8,5,5,5,5,8,12,12,12,12,12,12,13,13,
12,12,4,1,1,1,4,12,12,12,6,9,9,9,9,6,12,12,16,16,16,16,13,13,
12,12,2,10,10,10,2,12,12,12,6,9,9,9,9,6,12,12,16,12,16,16,13,12,
12,12,2,10,10,10,2,12,12,12,7,7,11,5,5,7,12,13,12,12,13,12,12,12,
12,12,3,1,11,1,3,13,12,12,12,12,11,12,12,12,12,12,12,12,12,12,12,12,
12,12,12,12,11,12,12,12,12,12,12,12,11,12,12,12,12,12,12,12,12,12,12,12,
12,12,12,12,11,12,12,12,12,11,11,11,11,11,11,12,12,12,12,14,14,14,14,14,
12,13,13,11,11,11,11,11,11,11,11,11,11,11,11,11,12,12,12,14,12,12,12,12,
12,13,13,12,11,12,12,12,12,11,11,11,11,11,12,12,12,12,12,22,12,12,12,12,
12,12,12,12,11,12,12,12,12,12,11,12,12,12,12,12,12,12,12,14,12,12,12,12,
12,12,12,12,11,12,14,14,12,12,11,12,12,12,12,12,12,12,12,14,12,12,12,13,
11,11,11,11,11,12,14,14,14,14,17,14,14,14,14,14,14,14,14,14,12,12,12,12,
12,12,12,12,12,12,14,14,14,12,11,12,12,12,12,12,12,12,12,12,12,12,12,12,
12,12,12,12,12,12,12,12,12,12,11,12,12,12,12,12,12,12,12,12,12,12,12,12
</data>
 </layer>
 <layer id="1" name="Tile Layer 1" width="24" height="14" visible="0">
  <data encoding="csv">
39,39,39,0,0,0,0,32,39,0,0,0,0,0,0,0,0,21,42,0,0,42,0,0,
39,39,0,0,0,0,0,0,0,39,0,56,0,55,54,0,0,0,0,0,0,0,0,0,
0,28,0,0,37,0,0,21,0,0,0,0,0,0,0,0,0,0,0,0,0,0,0,0,
39,0,0,0,0,0,0,0,21,0,0,0,0,0,0,0,0,0,0,19,0,59,0,0,
63,0,0,0,0,0,0,0,0,0,0,0,0,0,28,28,0,0,0,0,0,0,0,0,
0,0,0,0,0,0,31,0,0,0,0,0,0,0,0,0,0,0,26,42,42,42,42,42,
60,52,52,60,0,0,0,39,0,0,0,0,0,0,0,31,0,33,35,0,0,0,0,0,
60,0,0,0,0,0,0,0,0,0,0,0,0,0,0,0,59,0,35,0,33,0,33,0,
60,0,0,60,0,0,0,0,0,0,0,0,0,0,31,31,0,16,16,0,16,16,33,21,
60,52,52,60,0,0,0,0,0,0,0,0,0,0,0,31,0,0,0,0,0,0,21,21,
21,0,0,0,0,0,0,0,42,0,0,0,0,31,0,0,0,0,42,0,0,0,33,0,
0,0,0,0,0,0,0,0,0,0,0,0,0,0,0,0,0,0,0,0,0,0,33,21,
0,108,109,0,0,0,0,0,0,26,0,0,0,0,0,0,0,31,0,0,0,0,33,0,
0,116,117,0,0,0,0,0,0,0,0,0,0,31,31,31,0,0,59,31,0,0,16,0
</data>
 </layer>
 <layer id="3" name="Tile Layer 3" width="24" height="14" visible="0">
  <data encoding="csv">
0,0,0,0,0,0,0,0,0,0,0,0,0,0,46,0,0,0,33,42,42,35,0,0,
0,0,0,0,0,0,0,0,0,0,0,0,0,0,0,0,0,0,0,0,0,0,0,0,
0,0,0,0,0,0,0,0,0,0,0,0,0,0,0,0,0,0,0,0,0,0,0,0,
0,0,0,0,0,0,0,0,0,0,0,0,0,0,0,0,0,0,0,0,0,0,0,0,
0,0,0,0,0,0,0,0,0,0,0,0,0,0,0,0,0,0,0,0,0,0,0,0,
0,0,0,0,0,0,0,0,0,0,0,0,0,0,0,0,0,0,33,26,26,26,26,26,
0,0,0,0,0,0,0,0,0,0,0,0,0,0,0,0,0,26,0,30,30,30,30,30,
0,0,0,0,0,0,0,0,0,0,0,0,0,0,0,0,0,33,0,30,26,26,26,26,
0,0,0,0,0,0,0,0,0,0,0,0,0,0,0,0,0,0,0,0,0,0,0,0,
0,0,0,0,0,0,42,42,0,0,0,0,0,0,0,0,0,0,35,30,33,0,33,0,
0,0,0,0,0,35,30,30,33,42,0,42,42,42,42,42,42,42,35,30,33,0,0,0,
0,0,0,0,0,35,30,30,30,30,0,30,30,30,30,30,30,30,30,30,33,0,0,0,
0,0,0,0,0,35,30,30,30,33,0,26,26,26,26,26,26,26,26,26,0,0,42,0,
0,0,0,0,0,0,26,26,26,0,0,0,0,0,0,0,0,0,0,0,0,0,0,33
</data>
 </layer>
 <objectgroup id="4" name="Object Layer 1" visible="0">
  <object id="1" name="DOOR1" type="DOOR" gid="49" x="64" y="80" width="16" height="16"/>
  <object id="2" name="DOOR2" type="DOOR" gid="49" x="192" y="64" width="16" height="16"/>
  <object id="3" name="MINES" type="WARP_DOOR" gid="51" x="304" y="48" width="16" height="16"/>
  <object id="4" name="LAMP1" type="LAMP" gid="61" x="144" y="144" width="16" height="16"/>
  <object id="5" name="LAMP2" type="LAMP" gid="61" x="224" y="112" width="16" height="16"/>
  <object id="6" name="BIGSTA" type="STATUE" gid="48" x="176" y="128" width="16" height="16"/>
  <object id="7" name="MAGIC_TREE" type="MAGIC_TREE" x="24" y="200" width="16" height="16"/>
 </objectgroup>
 <layer id="5" name="Above Player" width="24" height="14">
  <data encoding="csv">
0,0,0,0,0,0,0,0,0,0,0,0,0,0,0,0,0,0,0,0,0,0,0,0,
0,0,0,0,0,0,0,0,0,0,0,0,0,0,0,0,0,0,0,0,0,0,0,0,
0,0,0,0,0,0,0,0,0,0,0,0,0,0,0,0,0,0,0,0,0,0,0,0,
0,0,0,0,0,0,0,0,0,0,0,0,0,0,0,0,0,0,0,0,0,0,0,0,
0,0,0,0,0,0,0,0,0,0,0,0,0,0,0,0,0,0,0,0,0,0,0,0,
0,0,0,0,0,0,0,0,0,0,0,0,0,0,0,0,0,0,0,0,0,0,0,0,
0,0,0,0,0,0,0,0,0,0,0,0,0,0,0,0,0,0,0,0,0,0,0,0,
0,0,0,0,0,0,0,0,0,0,0,0,0,0,0,0,0,0,0,0,0,0,0,0,
0,0,0,0,0,0,0,0,0,0,0,0,0,0,0,0,0,0,0,0,0,0,0,0,
0,0,0,0,0,0,0,0,0,0,0,0,0,0,0,0,0,0,0,0,0,0,0,0,
0,0,0,0,0,0,0,0,0,0,0,0,0,0,0,0,0,0,0,0,0,0,0,0,
0,0,0,0,0,0,0,0,0,0,0,0,0,0,0,0,0,0,0,0,0,0,0,0,
0,0,0,0,0,0,0,0,0,0,0,0,31,31,31,31,0,0,0,0,0,0,0,0,
0,0,0,0,0,0,0,0,0,0,0,0,0,0,0,0,0,0,0,0,0,0,0,0
</data>
 </layer>
</map>
